brandFactory_export/1.Light/Progreso abajo _1Light.svg

<?xml version="1.0" encoding="UTF-8"?>
<svg width="24px" height="24px" viewBox="0 0 24 24" version="1.1" xmlns="http://www.w3.org/2000/svg" xmlns:xlink="http://www.w3.org/1999/xlink">
    <title>1.Light/Progreso abajo _1Light</title>
    <g id="Symbols" stroke="none" stroke-width="1" fill="none" fill-rule="evenodd">
        <g id="1.Light/Progreso-abajo-_1Light" fill="#5CB615" fill-rule="nonzero">
            <path d="M23.6235294,15.8554622 L23.6235294,20.2722689 C23.6235294,20.5478992 23.3983193,20.7697479 23.1260504,20.7665376 L18.6487395,20.7665376 C18.3731092,20.7731092 18.1478992,20.5546218 18.1411765,20.2789916 L18.1411765,20.2722689 C18.1411765,19.9966387 18.3630252,19.7781513 18.6487395,19.7781513 L22.0201681,19.7781513 L14.8504202,9.83529412 L5.77478992,13.7176471 C5.5394958,13.8151261 5.26722689,13.7277311 5.13613445,13.5092437 L0.0672268908,4.77983193 C-0.0705882353,4.54117647 0.0134453782,4.23865546 0.25210084,4.10084034 C0.255462185,4.09747899 0.258823529,4.09747899 0.262184874,4.09411765 C0.507563025,3.96302521 0.810084034,4.04705882 0.954621849,4.28235294 L5.79831933,12.6285714 L14.8235294,8.76638655 C15.0453782,8.66554622 15.3042017,8.73613445 15.4420168,8.93445378 L22.6084034,18.8638655 L22.6084034,15.8521008 C22.6084034,15.5764706 22.8302521,15.3579832 23.1159664,15.3579832 C23.4016807,15.3613445 23.6235294,15.5798319 23.6235294,15.8554622" id="Path"></path>
        </g>
    </g>
</svg>

<svg width="24" height="24" viewBox="0 0 24 24" xmlns="http://www.w3.org/2000/svg"><path d="M23.624 15.855v4.417a.494.494 0 01-.498.495H18.65a.497.497 0 01-.508-.488v-.007c0-.275.222-.494.508-.494h3.371l-7.17-9.943-9.075 3.883a.515.515 0 01-.639-.209L.067 4.78a.497.497 0 01.185-.678c.003-.004.007-.004.01-.007a.523.523 0 01.693.188l4.843 8.347 9.026-3.863c.221-.1.48-.03.618.168l7.166 9.93v-3.012c0-.276.222-.494.508-.494a.5.5 0 01.508.497" fill="#5CB615" fill-rule="nonzero"/></svg>
